SFASUI/src/images/telegram-logo.svg

<svg width="26" height="21" viewBox="0 0 26 21" fill="none" xmlns="http://www.w3.org/2000/svg">
<path d="M9.70403 19.0298C8.9664 19.0298 9.09174 18.7634 8.83734 18.0916L6.66821 11.2633L23.3652 1.78873" fill="#0088CC"/>
<path d="M9.70403 19.0298C8.9664 19.0298 9.09174 18.7634 8.83734 18.0916L6.66821 11.2633L23.3652 1.78873" fill="black" fill-opacity="0.09"/>
<path d="M9.70398 19.0298C10.2732 19.0298 10.5247 18.7808 10.8424 18.4853L13.8782 15.6618L10.0914 13.4776" fill="#4AABDB"/>
<path d="M10.091 13.4782L19.2668 19.9624C20.3138 20.515 21.0695 20.2289 21.3304 19.0326L25.0654 2.19753C25.4478 0.731094 24.4809 0.0659882 23.4793 0.500971L1.5474 8.58993C0.0503472 9.16427 0.0590747 9.96315 1.27452 10.3191L6.90273 11.9994L19.9326 4.13653C20.5477 3.77975 21.1123 3.97156 20.6489 4.36491" fill="#0088CC"/>
</svg>

<svg width="26" height="21" fill="none" xmlns="http://www.w3.org/2000/svg"><path d="M9.704 19.03c-.738 0-.612-.267-.867-.938l-2.169-6.829L23.365 1.79" fill="#08C"/><path d="M9.704 19.03c-.738 0-.612-.267-.867-.938l-2.169-6.829L23.365 1.79" fill="#000" fill-opacity=".09"/><path d="M9.704 19.03c.57 0 .82-.25 1.138-.545l3.036-2.823-3.787-2.184" fill="#4AABDB"/><path d="m10.091 13.478 9.176 6.484c1.047.553 1.803.267 2.063-.93l3.735-16.834C25.448.73 24.481.066 23.48.5L1.547 8.59C.05 9.164.06 9.963 1.275 10.32L6.903 12l13.03-7.863c.615-.357 1.18-.165.716.228" fill="#08C"/></svg>
